!!!COM: Stadler, Maximilian
!!!CDT: 1748///-1833///
!!!COA: Haydn, Joseph
!!!OTL@@IT: Gioco filarmonico
!!!OTL@EN: Philharmonic Joke
!!!OTA@@IT: o sia maniera facile per comporre un infinito numero de minuetti e trio anche senza sapere il contrapunto
!!!OTA@EN: or the Art of Composing an Infinite Number of Minutes Without the Least Knowledge of Counterpoint
!!!PDT: 1781///
!!!PPR: Artaria
!!!SML: Gesellschaft der Musikfreundes, Vienna
!!!PPR2: Luigi Marescalchi
!!!PPP2: Napoli
!!!PDT2: 1790///
**kern	**kern	**kern
*Icello	*Ivioln	*Ivioln
*>[A,A,B,B,A]	*>[A,A,B,B,A]	*>[A,A,B,B,A]
*>norep[A,B]	*>norep[A,B]	*>norep[A,B]
*>A	*>A	*>A
*k[]	*k[]	*k[]
*M3/4	*M3/4	*M3/4
*MM120	*MM120	*MM120
!!section:  I
!!measure:  A
!!diceroll: 9
=119	=119	=119
4C	2e	2cc
4E	.	.
4G	16d	16b
.	16e	16cc
.	16f	16dd
.	16d	16b
!!section:  I
!!measure:  B
!!diceroll: 10
=142	=142	=142
8BB	4r	8.gg
8G	.	.
.	.	32ff
.	.	32gg
8D	8.ff	8.aa
8G	.	.
.	16b	16ff
8C	4cc	4ee
8G	.	.
!!section:  I
!!measure:  C
!!diceroll: 6
=163	=163	=163
8E	4g	4cc
8G	.	.
8BB	4g	8.dd
8G	.	.
.	.	32cc
.	.	32dd
8C	4g	4ee
8G	.	.
!!section:  I
!!measure:  D
!!diceroll: 5
=85	=85	=85
4G	4a	4cc
4D	16g	16b
.	16f#	16a
.	16g	16b
.	16a	16cc
4GG	4b	4dd
!!section:  I
!!measure:  E
!!diceroll: 9
=140	=140	=140
8F#	4a	2cc
8d	.	.
8A	4f#	.
8d	.	.
8F#	8cc	8aa
8d	8a	8cc
!!section:  I
!!measure:  F
!!diceroll: 6
=97	=97	=97
4BB	4d	16r
.	.	16d
.	.	16e
.	.	16f#
4r	4r	16g
.	.	16a
.	.	16b
.	.	16cc
4r	4r	16dd
.	.	16ee
.	.	16ff#
.	.	16gg
!!section:  I
!!measure:  G
!!diceroll: 5
=159	=159	=159
4C	16b	16dd
.	16a	16cc
.	16cc	16ee
.	16a	16cc
4D	4g	4b
4DD	4f#	4a
!!section:  I
!!measure:  H
!!diceroll: 4
=24	=24	=24
4G	2.g	2.g
8D	.	.
16r	.	.
16BB	.	.
4GG	.	.
*>B	*>B	*>B
!!section:  II
!!measure:  A
!!diceroll: 4
=66	=66	=66
4r	4r	8cc#
.	.	8ee
4G	4A	8r
.	.	8ee
4G	4A	16dd
.	.	16cc#
.	.	16b
.	.	16a
!!section:  II
!!measure:  B
!!diceroll: 5
=176	=176	=176
4D	12d	8ee
.	12f	.
.	.	8ff
.	12a	.
4D	12d	2dd
.	12f	.
.	12a	.
4D	12d	.
.	12f	.
.	12a	.
!!section:  II
!!measure:  C
!!diceroll: 6
=64	=64	=64
4BB	12B	2g
.	12d	.
.	12g	.
4BB	12B	.
.	12d	.
.	12g	.
4BB	12B	16gg
.	.	16ff
.	12d	.
.	.	16ee
.	12g	.
.	.	16dd
!!section:  II
!!measure:  D
!!diceroll: 8
=175	=175	=175
4r	4r	16dd
.	.	16cc
.	.	16b
.	.	16cc
4C	12e	2g
.	12g	.
.	12cc	.
4C	12e	.
.	12g	.
.	12cc	.
!!section:  II
!!measure:  E
!!diceroll: 2
=112	=112	=112
8A	8c	8.cc
8c	8r	.
.	.	16ff
8A	8c	8.ff
8c	8r	.
.	.	32ee
.	.	32ff
8F	8c	4aa
8c	8r	.
!!section:  II
!!measure:  F
!!diceroll: 8
=168	=168	=168
4E	4c	8gg
.	.	8g
4D	4B	8ff
.	.	8f
4C	4c	4e
!!section:  II
!!measure:  G
!!diceroll: 10
=149	=149	=149
2F	4A	16a
.	.	16cc#
.	.	16dd
.	.	16ff
.	4f	4aa
4G	4d	4b
!!section:  II
!!measure:  H
!!diceroll: 11
=78	=78	=78
4C	2.cc	2.cc
8.E	.	.
16G	.	.
4c	.	.
*-	*-	*-
!!!END: 2004/11/01/
